X:20
T:Rule Britannia
O:No 20 Pages 8-9 William Clarke of Feltwell  MS 1858
I:abc2nwc
M:4/4
L:1/8
K:D
A|d2d2(d/2e/2f/2g/2a) d|e2e(f/2g/2) f2zA|
(d/2e/2d/2e/2 f/2g/2f/2g/2) aefe|de/2f/2 ed c2z2|
zA ec a(^g/2f/2) (e/2d/2c/2B/2)|A2B2"^tr"({AB}A2)z2|
d2d3/2A/2 BG zd|gfed c2ze|"^tr"a2g2(f/2d/2g/2e/2)"^tr"ad|
A2e2"^tr"({de)}d4|f2zf gg zf|
g3/2f/2ed {d}c4|a2g2(f/2d/2g/2e/2) ag|f2"^tr"e2d4|]

